X:481
T: "Eifersucht"
N: Z1161
O: Europa, Mitteleuropa, Deutschland, Lothringen
R: Liebes - Lied
M: 3/8
L: 1/8
K: D
DFA | DFA | DBA | A2G
E2E | E2A | A2G | GFF
EEE | GFE | DFA | d3
B2B | A2F | AGE | D2z

